src/pos-icons/numeric-2-circle.svg

<svg height="24" viewBox="0 0 24 24" width="24" xmlns="http://www.w3.org/2000/svg"><path d="m9 7v2h4v2h-2a2 2 0 0 0 -2 2v4h2 4v-2h-4v-2h2a2 2 0 0 0 2-2v-2a2 2 0 0 0 -2-2zm3-5a10 10 0 0 1 10 10 10 10 0 0 1 -10 10 10 10 0 0 1 -10-10 10 10 0 0 1 10-10z"/></svg>

<?xml version="1.0" encoding="UTF-8"?><!DOCTYPE svg PUBLIC "-//W3C//DTD SVG 1.1//EN" "http://www.w3.org/Graphics/SVG/1.1/DTD/svg11.dtd"><svg xmlns="http://www.w3.org/2000/svg" xmlns:xlink="http://www.w3.org/1999/xlink" version="1.1" id="mdi-numeric-2-circle" width="24" height="24" viewBox="0 0 24 24"><path d="M9,7V9H13V11H11A2,2 0 0,0 9,13V17H11L15,17V15H11V13H13A2,2 0 0,0 15,11V9A2,2 0 0,0 13,7H9M12,2A10,10 0 0,1 22,12A10,10 0 0,1 12,22A10,10 0 0,1 2,12A10,10 0 0,1 12,2Z" /></svg>
